X: 342
T: Ballade 4 Op. 52
C: Fryderyk Chopin
%%abc-version 2.0
%%abcx-abcm2ps-target-version 5.9.1 (29 Sep 2008)
%%abc-creator hum2abc beta
%%abcx-conversion-date 2021/10/03 11:23:49
%%abc-edited-by Zofia Niedbalska
%%abc-edited-by Mateusz Mrugas
%%abc-edited-by Mateusz Mrugas
%%abcx-initial-encoding-date 2019-02-03
%%humdrum-veritas 933489414
%%humdrum-veritas-data 177462897
%%linebreak <none>
%%barnumbers 0
L: 1/16
M: 6/8
N: Derived from 052-1-BH.krn
P: Ballade pour le Piano
Q: "Andante con moto."
%%staves {1 2}
V: 1 clef=treble
V: 2 clef=bass
K: Ab
[V:1] [g2G2][g2G2][g2G2] [g2G2][g2G2][g2G2] & x6GcGcGc | 
[V:2] z4z2[K:clef=treble] =E2E2=D2 | 
[V:1] [g2G2][g2G2][g2G2] [g2G2][f2F2][=e2=E2] & G[cB]G[cB]G[cB] G[c=A]F[cA]=E[cA] | 
[V:2] =D2C2[K:clef=bass] z2 F,,C=A,C=D,C | 
[V:1] [=e2=E2][=d2=D2][c2C2]e6 & =E[=BG]=D[BG]CG E[cG]E[cF]E[cG] | 
[V:2] G,,G,[=B,F,]G,=E,G, C,G,C=A,G, z | 
[V:1] [g2=E2][g2G2][g2G2] [g2G2][f2F2][=e2=E2] & =EcG[cB]G[cB] G[c=A]F[cA]=E[cA] | 
[V:2] C,,G,C=D=E2 F,,C=A,C=D,C | 
[V:1] [=e2=E2][=d2=D2][c2C2]e6 & =E[=BG]=D[BG]CG E[cG]E[cF]E[cG] | 
[V:2] G,,G,[=B,F,]G,=E,G, C,G,C=A,G, z | 
[V:1] =e2=d2c2e6- & [=e=E][=BG][=d=D][BG][cC]G E[cG]E[cF]E[cG] | 
[V:2] G,,G,[=B,F,]G,=E,G, C,G,C=A,G,C, | 
[V:1] =e6x4c2- & =E[cG]E[cF]E[cG]!fermata!=E4x2 | 
[V:2] x3 C,3-x6 & C=A,G,C,CA,!fermata![G,4C,4]z2 | 
[V:1] c2d2=B2- B2c2f2 | 
[V:2] z4z2 .F,,2[A2F2C2][F2C2A,2] | 
[V:1] =e2_B2d4c2f2 | 
[V:2] .F,2[G2=E2D2][E2D2B,2] .F,,2[A2F2C2][F2C2A,2] | 
[V:1] =e2B2d2 z2 cdcd | 
[V:2] .F,2[G2=E2D2][E2D2B,2] .F,2[A2F2C2][F2C2A,2] | 
[V:1] _e2.e2e2 e2dcBc | 
[V:2] .E,2[A2C2].E,2 .E,,2[G2E2D2][E2D2G,2] | 
[V:1] A2z4z4z2 | 
[V:2] .A,,2[E2C2A,2][C2A,2E,2] [F2C2A,2][E2C2A,2][C2A,2E,2] | 
[V:1] z2 e2a2 g2d2_f2- | 
[V:2] .A,,,2[c2A2E2][A2E2C2] .A,2[B2G2_F2][G2F2D2] | 
[V:1] f2e2a2 g2d2_f2 | 
[V:2] .A,,2[c2A2E2][A2E2C2] .A,2[B2G2_F2][G2D2B,2] | 
[V:1] z2 e=fef _g2.g2g2 | 
[V:2] .A,,2[c2A2E2][A2E2C2] .E,,2[B2_G2E2][G2E2B,2] | 
[V:1] _g2fced B2z4 | 
[V:2] .F,,2[=A2F2E2][F2E2=A,2] .B,,2[F2D2B,2][D2B,2F,2] | 
[V:1] z2 dede f2.f2f2 | 
[V:2] ._G,,2[_G2D2B,2][D2B,2_G,2] .D,,2[F2D2A,2][D2A,2F,2] | 
[V:1] f2eBdc =A2 c2f2 | 
[V:2] .E,,2[_G2C2B,2][E2B,2_G,2] .F,,2[=A2F2C2][F2C2=A,2] | 
[V:1] =e2B2d4c2f2 | 
[V:2] .F,2[G2=E2D2][E2D2B,2] .F,,2[=A2F2C2][F2C2=A,2] | 
[V:1] =e2B2d2 z2 cdcd | 
[V:2] .F,2[G2=E2D2][E2D2B,2] .F,,2[_G2E2C2][E2B,2_G,2] | 
[V:1] _e2.e2e2 e2fced | 
[V:2] .F,2[B2_G2E2][G2E2C2] .F,,2[=A2E2][F2E2=A,2] | 
[V:1] B6=G4z2 | 
[V:2] .B,,2[F2D2B,2][D2B,2F,2] .C,2[=E2C2B,2][C2B,2G,2] | 
[V:1] z2 c2f2 =e2B2d2- | 
[V:2] .F,,2[A2F2C2][F2C2A,2] .F,2[B2G2=E2D2][E2D2B,2] | 
[V:1] d2c2f2- f=eBc_ed | 
[V:2] .F,,2[A2F2C2][F2C2A,2] .F,2[G2=E2D2][_E2D2B,2] | 
[V:1] z2 cdcd e2.e2e2 | 
[V:2] .F,2[A2C2A,2]_F,2 E,2[A2C2]E,2 | 
[V:1] e2dcBc A2z4 | 
[V:2] .E,,2[G2D2][D2G,2E,2] .A,,2[E2C2A,2][C2A,2E,2] | 
[V:1] z4z2 z2 e2a2 | 
[V:2] .A,,2[_F2C2A,2][C2A,2_F,2] .A,,,2[c2A2E2][A2E2C2] | 
[V:1] g2d2_f4e2a2- | 
[V:2] .A,2[B2G2_F2][G2F2D2] .A,,2[c2A2E2][A2E2C2] | 
[V:1] agde_g_f z2 efef | 
[V:2] .A,2[B2G2_F2][=G2D2B,2] .A,,2[c2A2E2][A2E2C2] | 
[V:1] _g2.g2g2 g2fced | 
[V:2] .E,,2[B2_G2E2][G2E2B,2] .F,,2[=A2E2][F2E2=A,2] | 
[V:1] B2z4z2 dede | 
[V:2] .B,,2[F2D2B,2][D2B,2F,2] ._G,,2[_G2D2B,2][D2B,2_G,2] | 
[V:1] f2.f2f2 f2eBdc | 
[V:2] .D,,2[F2D2A,2][D2A,2F,2] .E,,2[_G2C2B,2][E2B,2_G,2] | 
[V:1] =A2 c2f2 =e2B2d2- | 
[V:2] .F,,2[=A2F2C2][F2C2=A,2] .F,2[G2=E2D2][E2D2B,2] | 
[V:1] d2c2f2- f=eBc_ed | 
[V:2] .F,,2[=A2F2C2][F2C2=A,2] .F,2[G2=E2D2][_E2D2B,2] | 
[V:1] z2 cdcd e2.e2e2 | 
[V:2] .F,,2[_G2E2C2][E2B,2_G,2] .F,2[B2G2E2][G2E2C2] | 
[V:1] e2fcedB4z2 | 
[V:2] .F,,2[=A2E2][F2E2=A,2] .B,,2[F2D2B,2][D2B,2F,2] | 
[V:1] x4z8 | 
[V:2] [_G2D2B,2][F2D2B,2][D2B,2F,2] [B,2F,2D,2] [B,,2B,,,2][A,,2A,,,2] | 
[V:1] z4z2[_g4B4_G4][g2B2G2] | 
[V:2] [_G,,2_G,,,2][D,2D,,2][_G,2_G,,2] [B,2B,,2][E2E,2][B,2B,,2] | 
[V:1] [_g12B12_G12] | 
[V:2] [D2D,2][E2E,2][B,2B,,2] [D2D,2][A,2A,,2][B,2B,,2] | 
[V:1] [_g6B6_G6]-[g4B4G4][g2B2G2] | 
[V:2] [_G,2_G,,2] [E,2E,,2][B,,2B,,,2] [D,2D,,2][A,,2A,,,2][B,,2B,,,2] | 
[V:1] [_g6B6_G6][f6A6F6] | 
[V:2] [_G,,2_G,,,2] [E2E,2][B,2B,,2] [D2D,2][A,2A,,2][B,2B,,2] | 
[V:1] [_f6A6_F6][f4A4F4][f2A2F2] | 
[V:2] [_C2_C,2] [C,2_C,,2][_F,2_F,,2] [A,2A,,2][D2D,2][A,2A,,2] | 
[V:1] [_f12A12_F12] | 
[V:2] [_C2_C,2][D2D,2][A,2A,,2] [C2C,2][_G,2_G,,2][A,2A,,2] | 
[V:1] [_f6A6_F6][f4A4F4][f2A2F2] | 
[V:2] [_F,2_F,,2] [D,2D,,2][A,,2A,,,2] [_C,2_C,,2][_G,,2_G,,,2][A,,2A,,,2] | 
[V:1] [_f6A6_F6][e6E6] & x4>A4B2_c2 | 
[V:2] .[_F,,2_F,,,2] [D2D,2][A,2A,,2] [_C2_C,2][B,2B,,2][A,2A,,2] | 
[V:1] .=D2 =dede f2.f2f2 | 
[V:2] .[B,,2B,,,2] [=D2C2A,2][A2D2] z2 [A2D2A,2][D2A,2F,2] | 
[V:1] f2_gfeA_c'6 | 
[V:2] ._C,2[A2E2A,2][E2A,2F,2] .F,,2[A2E2A,2][E2A,2F,2] | 
[V:1] z2 =dede f2.f2f2 | 
[V:2] .B,,2[=D2B,2F,2][A2D2B,2] .=B,,2[A2E2A,2][E2A,2F,2] | 
[V:1] f2_gfe=Ac'6 | 
[V:2] .C,2[=A2E2=A,2][E2=A,2F,2] .F,,2[A2E2A,2][E2A,2F,2] | 
[V:1] b6!trill!g6{/fg} & x6_d6 | 
[V:2] .B,,2[_A2=D2B,2][D2B,2F,2] .E,,2[G2_D2B,2][D2B,2E,2] | 
[V:1] b2aea_g g2f4 & d2c4e2dAdc | 
[V:2] .A,,2[_G2C2A,2][C2A,2E,2] .D,,2[F2D2A,2][D2A,2F,2] | 
[V:1] a2_gdgf f2efag & c2B4B2cdBc | 
[V:2] ._G,,2[F2D2B,2][D2B,2_G,2] .C,,2[E2G,2] z2 | 
[V:1] .[=A2E2] cdcd[e4A4][d2B2] & x2[A4_G4]-G2F4 | 
[V:2] .F,,2 EF,EDC4B,2 | 
[V:1] [d2B2F2] [dB][ec][dB][ec][_f4B4][e2B2] & x2G4-G2_G4 | 
[V:2] B,2 _F=F,_FED4C2 | 
[V:1] [e2B2E2] efef _g2.g2g2 | 
[V:2] C2z4z4z2 | 
[V:1] !accent!_g4>-g4fced | 
[V:2] z4z2 .F,,2[=A2E2][F2E2=A,2] | 
[V:1] B4>=G4z4 | 
[V:2] .B,,2[F2D2B,2][D2B,2F,2] .C,2.[=E2C2B,2].[C2B,2=E,2] | 
[V:1] z2 c2f2 =e2B2d2- & z AAGGF dAGF=EB | 
[V:2] .F,,2[C2A,2F,2][A2C2A,2] !arpeggio![G,2D,2F,,2][D2B,2F,2][G2D2B,2] | 
[V:1] d2c2[f2c2] =e2B2d2 & BAAGGF [dB][cA][BG][AF][G=E][BG] | 
[V:2] [F,2F,,2][C2A,2F,2][A2C2A,2] !arpeggio![G,2D,2F,,2][D2B,2F,2][G2D2B,2] | 
[V:1] [c2C2][cA][dB][cA][dB] !accent![e2c2]!accent![e2E2]!accent![e2E2] & [BG][AF][A2F2][A2_F2] [AE][BD]BAAG | 
[V:2] x4>x4 DCCB, & .[C,2F,,2][C2A,2F,2C,2][_F,2_F,,2] .[E,2E,,2] E,2E,2 | 
[V:1] !arpeggio![e2G2][dF][cG][BF][cG] A2z4 & !arpeggio!DFx4FEE=DD_D | 
[V:2] xE,4x DCC[=B,F,][B,F,][A,_F,] & E,,E,B,EDE2< A,2 x3 | 
[V:1] DCCFE[BGD] x2 [e2c2][a2e2c2] & x6[cBC]EEBBA | 
[V:2] A,3 x3 .[A,,2A,,,2]x4 & _F,E,E,[D,D,,][C,C,,][B,,B,,,] x2 [C2A,2E,2][E2C2A,2E,2] | 
[V:1] g2d2_f2 z2 e2[a2e2] & [_fd][ec]B[cA][BG][dB] [dE]cc[dB][dB][cA] | 
[V:2] !arpeggio![B,2_F,2A,,2][D2B,2G,2F,2][_F2D2B,2G,2] .[A,,2A,,,2][C2A,2E,2][E2C2A,2E,2] | 
[V:1] g2d2_f2x6 & [_fd][ec]B[cA][BG][dB] [cAE][dB][ec][=fd][ec][fd] | 
[V:2] !arpeggio![B,2_F,2A,,2][D2B,2G,2F,2][_F2D2B,2G,2] .[A,,2A,,,2][E2C2A,2E,2][A2C2A,2] | 
[V:1] !accent![_g2_G2]!accent![g2G2]!accent![g2e2] !arpeggio![g2=A2E2]fced & efedcBx6 | 
[V:2] x6x2< F,2F,2 & [E,2B,,2E,,2][C2B,2_G,2E,2][_G2E2C2B,2] F,,F,CEGF | 
[V:1] B4>d4dede & FED[_GB,]F[c=AE] [BD]FBcBc | 
[V:2] [DB,]_G,F,[E,E,,][D,D,,][C,C,,] .[B,,2B,,,2][D2B,2F,2][F2D2B,2] | 
[V:1] !accent![f2F2]!accent![f2d2]!accent![f2d2] f2eBdc & dcBA_GF GdcGE=E | 
[V:2] [D,2A,,2D,,2][D2A,2F,2][A2D2A,2] [E,2E,,2][E2B,2_G,2][G,2_G,,2] | 
[V:1] =A2-[c2A2C2][f2A2F2] [=e2B2=E2][B2E2B,2]!arpeggio![d2E2] & F xx4x4!arpeggio!=A,B, | 
[V:2] .[F,F,,] [_G_G,][FF,][=E=E,][_E_E,][CC,] [DD,][B,B,,][=G,=G,,][_G,_G,,][D,D,,][G,,_G,,,] | 
[V:1] [=AFC] z [c'2=a2c2][f'2a2f2] [=e'2b2=e2][b2e2B2]!arpeggio![d'2e2A2] & x2x4x2 B=AAB | 
[V:2] .[F,,F,,,] [_G_G,][FF,][=E=E,][_E_E,][CC,] [DD,][B,B,,][=G,=G,,][_G,_G,,][D,D,,][G,,_G,,,] | 
[V:1] [d'bd][c'=ac] [c'ac][d'bd][e'c'e][f'd'f] !accent![_g'2e'2_g2]!accent![g'2e'2g2]!accent![g'2e'2g2] | 
[V:2] [=E,,=E,,,][F,,F,,,] [_G_G,][FF,][=E=E,][DD,] [CC,][B,B,,][=A,=A,,][_G,_G,,][E,E,,][C,C,,] | 
[V:1] .[_g'2e'2_g2] [E2_C2_G,2][E2B,2G,2] [E2B,2G,2][_G2__B,2E,2][G2B,2G,2] | 
[V:2] [=A,,2=A,,,2] [A,,2A,,,2][B,,2B,,,2] [B,,2B,,,2][_C,2_C,,2][E,,2E,,,2] | 
[V:1] D>[_C__B,E,]_F[EC__B,]A[_GEC] _c[GDC]G[FDC]B[AFD] | 
[V:2] .[_G,,2_G,,,2] z _G,_C__B, .[A,,2A,,,2] z A,DC | 
[V:1] d[A_FD]A[=GED]_c[BG_F] e[B_GE]B[=A=FE]d[cAG] | 
[V:2] .[B,,2B,,,2] z B,ED .[=C,2=C,,2] z _CFE | 
[V:1] _g[fe=A]b[=afe]d'[c'af] f'[e'c'a]_g'[f'e'c']=g'[f'e'c'] | 
[V:2] .[F,,2F,,,2] z cfe .F2[K:clef=treble] z =a.ca | 
[V:1] _g'[f'e'c']=g'[f'e'c']_g'[f'e'c'] =g'[f'e'c']_g'[f'e'c']=g'[f'e'c'] | 
[V:2] .F=a.ca.Fa .ca.Fa.ca | 
[V:1] =e'f'f''^f'^f''g' ^g'=a'=d''c''b'=g' | 
[V:2] ._e2z4z4z2 | 
[V:1] f'=d'e'g'f'e' c'=ab=d'c'b | 
[V:2] z12 | 
[V:1] gf=degf ec=ABdc | 
[V:2] z4z2[K:clef=bass] z2 C=DFE | 
[V:1] BGF=DEG FEC=A,CG, | 
[V:2] =DB,=A,F,G,B, A,G,E,C,E,2- | 
[V:1] F,4-[=D2=A,2F,2][D4B,4][D2A,2] | 
[V:2] E,=D,C,B,,F,,2[F,4B,,4][F,2F,,2] | 
[V:1] [=D4B,4][B2D2][D4B,4]^G,2 | 
[V:2] [F,4B,,4][F,2F,,2][F,4B,,4][=E,2=E,,2] | 
[V:1] [^C4=A,4][=A2C2][C4A,4][=C2^F,2] | 
[V:2] [=E,4=A,,4][E,2=E,,2][E,4A,,4]=D,,2 | 
[V:1] [B,4G,4][E2C2G,2][=D4B,4F,4][C2=A,2F,2] | 
[V:2] G,,4C,,2F,,4F,,2 | 
[V:1] [=D2B,2F,2] z2 [=d2A2=D2][d6^F6D6C6] | 
[V:2] [B,,2B,,,2] z2 [B,2F,2B,,2][=A,6=D,6-=A,,6] | 
[V:1] [B4G4=D4B,4][G2E2B,2] {/=A}[G4E4B,4][F2-E2=A,2] | 
[V:2] !accent![D,4G,,4]C,2C,4[F,2F,,2] | 
[V:1] [F2=D2B,2] z2 [=d2F2D2][B4D4][g2B2G2]- | 
[V:2] .[B,,2B,,,2] z2 [B,2F,2B,,2][B,4F,4B,,4][=E2^C2B,2]- | 
[V:1] [g2B2G2][f2B2][=e2B2][f6B6A6] | 
[V:2] [=E2C2B,2][F2=D2B,2][G2^C2B,2][A4D4B,4].[B,,2B,,,2] | 
[V:1] x4[B2A2=D2]B6- & [f4B4A4]x2[A4D4][G2E2] | 
[V:2] .[B,,2B,,,2] z2 [B,2B,,2][B,4B,,4][B,2E,2] | 
[V:1] [B4G4E4][e2G2E2][e4G4E4][G2E2C2] | 
[V:2] [B,4E,4][C2C,2][C4C,4][G,2C,2] | 
[V:1] [G4E4C4][B2=D2B,2][B4D4B,4][c2=E2B,2] | 
[V:2] [G,4C,4][G,2G,,2][G,4G,,4]C,2 | 
[V:1] [F12-_E12] | 
[V:2] B,2=A,2=D2 C2G,2=A,2 & [C,12F,,12] | 
[V:1] [F4=D4][=d2D2]d6 & x6D4D2 | 
[V:2] G,2F,4x6 & B,,6[F,4B,,4][^F,2B,,2] | 
[V:1] [B4=D4][G2D2] {/=A}[G4E4B,4][F2E2] | 
[V:2] [^F,4B,,4][G,2B,,2][G,4C,4][=A,2C,2] | 
[V:1] [F4=D4][=d2^F2C2][B4G4B,4][g2B2G2] | 
[V:2] [=A,4=D,4][A,2D,2][G,4E,4][^C2B,2=E,2] | 
[V:1] [g2B2G2][f2B2F2][=e2B2=E2][f6B6F6]- | 
[V:2] [^C2B,2=E,2][=D2B,2F,2][C2B,2G,2][D4B,4A,4].[B,,2B,,,2] | 
[V:1] [f4B4F4][B2A2=D2]B6- & x6[A4D4][G2E2] | 
[V:2] .[B,,2B,,,2] z2 [B,2F,2B,,2][B,4F,4B,,4][B,2E,2] | 
[V:1] B4[e2G2][e6G6]- & [G4E4]x2x6 | 
[V:2] [B,4E,4][B,2E,2][B,6E,6]- | 
[V:1] [e4G4][G2C2][B4=D4B,4][c2=E2B,2] | 
[V:2] [B,4E,4]E,2[G,4G,,4]C,2 | 
[V:1] [c4_E4=A,4][B2=D2B,2][B4D4]!accent!D2 | 
[V:2] !arpeggio!F,,4.B,,,2[F,4B,,4]=D,2- | 
[V:1] =DE=D=A^FE DEDBGE & C6B,6 | 
[V:2] =D,E,=D,4-D,E,D,4 & ^F,,6G,,6 | 
[V:1] ^F,E=D^Fc=d ^fc'c'=a'z[g'b] | 
[V:2] =A,,2=C2 z2z4z2 | 
[V:1] =a^f'[e'g]^f=d'[c'e] =db[=ac]ec'[bd] | 
[V:2] =D,,2=D,2=A,2 C2^F2 z2 | 
[V:1] c=a[bd][^f=A][ac]z/[g/-B/] [gB] ^FF=FF=E- | 
[V:2] G,,2=D,2=D^F G ^F,F,=F,F,=E,- | 
[V:1] =EF=E=B^GF EFEc=AF & =D6C6 | 
[V:2] =E,F,=E,=B,^G,F, E,F,E,C=A,F, & ^G,,6=A,,6 | 
[V:1] ^G,=F=E^G=d=e ^g=d'd'=b'z[=a'c'] | 
[V:2] =B,,2=D2 z2z4z2 | 
[V:1] c'=a'[^g'=b]=af'[=e'^g] f'=d'[c'=e][=b=d][d'f][c'e] | 
[V:2] =E,,2=E,2=B,2 =D2^G2 z2 | 
[V:1] =d=b[c'=e][^g=B][bd][=ac]- [ac]!accent![a2c2]!accent![a2c2]!accent![ac] | 
[V:2] =A,,,2 =A,,=E,=A,=E =A2E2_E2 | 
[V:1] [=ac][b2=d2][a2c2][c'e]- [c'e][b2d2][^fc][gB][bd]- | 
[V:2] =D12 & =D4^F,2 G,2=A,2B,=D, | 
[V:1] [b=d][=a2c2][b=d][^f=A][ac] [ac][gB]{/a}[gB][f2A2][gB]- | 
[V:2] .=D,,2=D2[^F2C2] G,2D2_D2 | 
[V:1] [gB][_a2c2][g2B2][b_d]- [bd][a2c2][=eB][fA][ac] | 
[V:2] C12 & C4=E,2 F,2G,2A,C, | 
[V:1] [ac][g2B2][ac][=eG][gB] [gB][fA]{/g}[fA][e2G2][fA] | 
[V:2] x2C4x6 & .C,,2C2[=E2B,2] F,2C2[F2A,2] | 
[V:1] [fA][_g2B2][fA][e_G][gB] [fA][gB][fA][cG][dF][fA] | 
[V:2] .A,,2 !trill!A,2C,2 .D,2 !trill!A,2{/=G,A,}D2 | 
[V:1] [e=G][fA][eG][fA][dF]e [cE]d[BD]c[AC] z | 
[V:2] .E,,2E,2[E2G,2] .A,,2E,2[EA,] z | 
[V:1] [f'a][_g'2b2][f'a][e'_g][g'b] [f'a][g'b][f'a][c'g][d'f][f'a] | 
[V:2] .A,,2[K:clef=treble] !trill!A2C2 .D2 !trill!A2{/=GA}d2[K:clef=bass] | 
[V:1] [e'=g][f'a][e'g]f'[d'f]e' [c'e]d'[bd]c'[ac]f' | 
[V:2] E,2[K:clef=treble]E2[e2G2] .A,2E2[e2A2][K:clef=bass] | 
[V:1] [e'g]f'[e'g]f'[d'f]e' [c'e]d'[bd]c'[ac] z | 
[V:2] E,2[K:clef=treble]E2[e2G2] .A,2E2!accent![eA] z[K:clef=bass] | 
[V:1] [e''g']f''[e''g']f''[d''f']e'' [c''e']d''[b'd']c''[a'c']b' | 
[V:2] .E,,2.E,2.[E2D2G,2][K:clef=treble] [G2D2B,2][d2G2E2][e2d2G2] | 
[V:1] [g'b]a'[f'a]g'[e'g]f' [d'f]e'[c'e]d'[bd]c' | 
[V:2] [g2d2]z4z4z2[K:clef=bass] | 
[V:1] [ac]b[gB]a[fA]g [eG]f[dF]e[cE]d | 
[V:2] z2!accent!D8E,2- | 
[V:1] !trill!B6=ABcBdG & D12 | 
[V:2] E,2=E,2F,2 ^F,2G,2_E,2 & A,,12- | 
[V:1] A4>-A4=GA=GA & CEB,ECE D_FE_GDF | 
[V:2] A,2E,2_G,2 _F,2C,2D,2 & A,,6x6 | 
[V:1] __B2A2_G2 _F2-FE{/G}FE & DED_F_G,D =G,DG,_DG,D | 
[V:2] _G,,2A,,2=A,,2 B,,2=D,,E,,D,,E,, | 
[V:1] A4A2 A2=GA=GA & CEB,ECE A,DA,_GA,_F | 
[V:2] .[A,,2A,,,2] [E,2E,,2][_G,2_G,,2] [_F,2_F,,2][C,2C,,2][D,2D,,2] | 
[V:1] _c__BBAA_G FEc_B_fe & DED_F_G,D =G,DD=GGd | 
[V:2] [_G,,2_G,,,2][A,,2A,,,2][=A,,2=A,,,2] [_B,,2_B,,,2][E,,2E,,,2][E,2E,,2] | 
[V:1] [a2e2][a2e2][a2e2] [a2e2][g2e2][e2B2] & dccBcA BABFGE | 
[V:2] .[A,,2A,,,2][E,2E,,2] x2 z2 .B,2B,2 & x4[E,8A,,8]- | 
[V:1] x6g6 & [_g2e2][g2e2][g2e2] e2__e2d2 | 
[V:2] B,2=A,B,A,B,E6 & [E,4A,,4]x2x6 | 
[V:1] [_g2c2][g2c2][_g2c2] [g2c2][f2c2]c2 & __BAA=GAE A=GA=EFC | 
[V:2] [A,,2A,,,2][E,2E,,2][A,2-A,,2] A,2A,2A,2- & x4x2A,,6 | 
[V:1] [=e2=B2]!arpeggio![e2B2]!arpeggio![e2B2]e6 & =E^D!arpeggio!^F=B,!arpeggio!EB, BEB^DB-=D | 
[V:2] G,2^^F,^G,F,G,x6 & ^G,,6^G6 | 
[V:1] =B=A [=e2=E2][e2E2] [e2E2][=d2=D2][^c2^C2] & ^CG=E[AG]E[AG] E[=A^F]=D[AF]^C[AF] | 
[V:2] =A,,,=E,=A,=B,^C2 =D,,=A,^F,A,=B,,A, | 
[V:1] [^c2^C2][=B2=B,2][=A2=A,2]c6 & ^C[^G=E]=B,[EG]=A,E C[AE]C[A=D]C[AE] | 
[V:2] =E,,=E,[^G,=D,]E,^C,E, =A,,E,=A,^F,E,2 | 
[V:1] !arpeggio![=e2^C2][e2=E2][e2E2] [e2E2][=d2=D2][^c2C2] & !arpeggio!^C[=AG]=E[AG]E[AG] E[A^F]=D[AF]C[AF] | 
[V:2] =A,,,=A,,=E,=B,^C2 =D,,=A,^F,A,^F,,^C, | 
[V:1] [^c2^C2][=B2=B,2][=A2=A,2]!arpeggio!c6 & ^C^G=B,[GC]=A,[^FC] !arpeggio!^G,[G^E]C[GE]C[GE] | 
[V:2] ^E,,^C,^G,C,^F,,C, ^C,,^G,,G,C,^C2 | 
[V:1] [^c2^C2][=B2=B,2][=A2=A,2]c6 & ^C[^G=E]=B,E=A,E C[AE]C[A=D]C[AE] | 
[V:2] =E,,=E,[^G,=D,]E,^C,E, =A,,=E,=A,^F,E,A,, | 
[V:1] =A2A2A2!fermata!C6-{/C2E2=A2^c2=e2=a2^c'2=a'2c'2=e'2=d'2c'2a2e2g2=f2e2a2c2e2=d2c2A2E2G2F2E2A2E2G2F2E2A2E2G2F2 E2 !fermata!A4- A2_B2^G2} & ^C=DC=ECDx6 | 
[V:2] =A,^F,=E,=A,,A,F,!fermata![E,6-A,,6]{/E,2A,2^C2=E2=A2^c2=E2=A2E2=F2E2C2A2=d2c2A2E2F2E2C2A,2=D2C2E,2A,,2=D2C2E,2A,,2=D2 !fermata!C6 z4 z2} | 
[V:1] =A2_B2=d2 ^c2G2B2 | 
[V:2] z4z2 =A,2B,2=D2 | 
[V:1] =A2B2=d2 ^c2G2B2 | 
[V:2] ^C2G,2B,2 =A,2B,2=D2 | 
[V:1] z2 =ABAB c2c2c2 & x4G2 C2=D2F2 | 
[V:2] _D2C2B,2- B,2=A,2=D,2 | 
[V:1] c2B=AGA [F2=A,2]z4 & [F2B,2]=D2[=E2B,2]x6 | 
[V:2] x4>C,4_D,2F,2 & G,2G,,2C,2- F,,2z4 | 
[V:1] C2_D2F2 c2d2f2 & x4>=E4B,2D2 | 
[V:2] =E,2B,,2D,2 C,2z4 | 
[V:1] =e2B2d2 z2 cdcd | 
[V:2] C2D2F2 _F2_E2[D2-B2] | 
[V:1] e2e2e2 e2dcBc & E2F2A2 [A2D2]F2[G2D2] | 
[V:2] D2C2F,2 B,2B,,2E,2- | 
[V:1] [A2C2]z4E2_F2A2 | 
[V:2] E,2_F,2A,2x6 & A,,2z4G,2D,2F,2 | 
[V:1] e2_f2a2 [g2B2][=d2__B2]f2 & G2A2_c2x6 | 
[V:2] E,2 z2 =D2 E2_F2A2 | 
[V:1] z2 e_fef [_g2_G2][g2_c2][g2B2_F2] & x4d2x6 | 
[V:2] __A2_G2_F2 E2[__E2G2]D2 | 
[V:1] _g2fced B2z4 & =A6x6 | 
[V:2] [E2=C2]F,2F2 .B,,2[D2F,2].A,,2 | 
[V:1] z2 dede f2.f2!accent!f2 | 
[V:2] ._G,,2[B,2_G,2D,2][D2B,2G,2] .D,,2[D2A,2F,2][F2D2A,2] | 
[V:1] f2eBdc =A2c2f2 | 
[V:2] .E,,2[C2B,2E,2][_G2C2B,2] .F,,2[=A2F2C2][F2C2=A,2] | 
[V:1] =e2B2d2 z2 c2f2- | 
[V:2] .F,2[G2=E2D2][E2D2B,2] .F,,2[=A2F2C2][F2C2=A,2] | 
[V:1] f=eBc_ed z2 cdcd | 
[V:2] .F,2[G2=E2D2][_E2D2B,2] .F,,2[_G2_E2C2][E2B,2_G,2] | 
[V:1] e2.e2e2- e2fced | 
[V:2] .F,2[B2_G2E2][G2E2C2] .F,,2[=A2E2][F2E2] | 
[V:1] B6=G4z2 | 
[V:2] B,,2[F2D2B,2][D2B,2F,2] C,2[=E2C2B,2][C2B,2G,2] | 
[V:1] z2 c2f2- f3//=e3//=A3//B3//=B3//c3//_e3//d3// | 
[V:2] F,,C,A,F,CA F,,D,G,=E,B,G | 
[V:1] z3// c3//d3//=B3//c3//a3//g3//f3// f=e (7:4:7z =A_B=Bc_ed | 
[V:2] F,,C,A,F,CA F,,D,G,=E,B,G | 
[V:1] z2 (3:2:6cdc=Bcd (5:4:10=d//e//c'//g//_b//a//c//_d//=d//e// | 
[V:2] F,,C,A,_F,,C,A, E,,C,A,E,Cc | 
[V:1] (5:4:10=e//g//f//_e//c//e//d//F//G//E// A2z4 | 
[V:2] E,,D,G,E,DB A,,E,CE,CA | 
[V:1] z4z2 z2 e2a2 | 
[V:2] A,,_F,CF,CA A,,,E,CE,CA | 
[V:1] (3ag=B (3cd=d (3e_g_f z e (3f=de (3c'=b=a | 
[V:2] A,,_F,DB,G_d A,,E,CA,Ec | 
[V:1] (3._ag=B (3cd=d (3e_g_f z2 (3efe (3=def | 
[V:2] B,,_F,DB,G_d A,,E,CA,Ec | 
[V:1] (3_g_g'f' (3_f'e'd' (3c'ba (3g_f=e (3_ed=B (3ced | 
[V:2] E,,B,,_G,E,B,_G F,,C,=A,F,Ec | 
[V:1] (3cB zz4z2 (3ded (3cde | 
[V:2] B,,,F,,D,B,,F,D _G,,D,B,_G,DB | 
[V:1] (3ff'c' (3e'd'a (3fed !trill!_c>B (3cde (3=A=cB | 
[V:2] D,,A,,F,D,A,F E,,_C,G,=E,,D,G, | 
[V:1] (3=Ac=e (3_gf=a (3c'ff' (3=e'c'_e' (3d'b=g (3_edB | 
[V:2] F,,C,=A,F,C=A F,,D,B,=E,DG | 
[V:1] (3=Ac=e (3_gf=a (3c'f'f'' (3=e''c''_e'' (3d''b'=g' (3e'd'b | 
[V:2] F,,C,=A,F,C=A[K:clef=treble] F,DB=Edg | 
[V:1] (3=ac'e' (3f'=a'_g' (3e'c'a (3_gec (3=AB=B (3c=dB | 
[V:2] [c2F2]z4z2 (3CD=D (3E_F_D[K:clef=bass] | 
[V:1] (3=Ace (3f=a_g (3ecA (3_GEC (3=A,B,=B, (3C=D_B, | 
[V:2] [F2C2][E2F,2] x2 x2 (3C,D,=D, (3E,_F,D, | 
[V:1] (3=A,B,=B, (3CD_B, (3A,B,=B, (3CD_B, (3A,B,=B, (3CD_B, | 
[V:2] [F,2C,2F,,2][=E,2D,2][F,2C,2][E,2D,2][F,2C,2][E,2D,2] | 
[V:1] (3=A,CE (3Fc_A (3G_GF (3_FE=D (3_DC_C (3B,=A,_A, | 
[V:2] [_E,2F,,2]z4z4z2 | 
[V:1] (3G,_G,F, (3_F,E,=D, (3_D,C,_C, (3B,,=A,,_A,, (3=G,,_G,,=F,, (3_F,,E,,__E,, | 
[V:2] z12 | 
[V:1] z4[f2A2F2][f6A6F6] | 
[V:2] (3.D,,A,,B,, (3C,D,E, (3F,_G,A, (3B,A,B, (3CDEF2 | 
[V:1] [d4F4][B2F2][B4_G4C4]A2 | 
[V:2] (3D,,A,,B,, (3C,D,E, (3F,_G,A, (3B,A,C (3DEF_G2 | 
[V:1] A4[f2A2][d4A4D4][b2d2_c2] & _G2F2E2x6 | 
[V:2] (3D,,A,,B,, (3C,D,E, (3F,_G,A, (3B,A,B, (3_CDEF2 | 
[V:1] [b2d2_c2][a2d2c2][=g2d2c2][a6d6c6] | 
[V:2] (3D,,A,,D, (3F,A,D (3A,FD (3A,AF (3DA,F, (3D,A,,A, | 
[V:1] {/F-}!arpeggio![a4_c4F4][d2c2F2][d6c6F6]- | 
[V:2] (3D,,A,,D, (3A,D,A,, (3D,A,D (3A,D,A, (3DAD (3A,D,A, | 
[V:1] [d6c6F6][d4_c4_G4][_g2B2G2] | 
[V:2] (3DA,D, (3A,,D,A, (3D,A,,D,, _G,,,D, (3D_G,D, (3B,G,D, | 
[V:1] _g2 (3B,BE (3GB,c (3GBD (3dGB (3GgB & (3:2:11_g_GB x B2 x2 c2 x2 d2 x2 g2 | 
[V:2] E,,B,,E,_G,E,B,, E,,B,,E,B,E,B,, | 
[V:1] (3x2 f2 x2 (3f2 x2 e2 (3x2 c2B2 & (3d_Gf (3BdG (3fAc (3GeA (3cEc (3GBC | 
[V:2] A,,E,_G,DG,E, A,,E,G,CG,A,, | 
[V:1] [B2B,2][A2A,2] x2x6 & A4[f'2a2f2][f'4a4f4][d'2a2d2] | 
[V:2] (3D,,A,,B,, (3C,D,E, (3F,_G,A, (3B,A,B, (3CDEF2 | 
[V:1] [d'2f2d2]F2[b2d2] [_g2c2b02]B2[a2e2A2] | 
[V:2] (3D,,A,,B,, (3C,D,E, (3F,_G,A, (3B,A,C (3DEF_G2 | 
[V:1] [a4f4A4]x2x6 & e2d2 [f'2a2f2][d'4a4d4][b'2d'2=g2] | 
[V:2] (3D,,A,,B,, (3C,D,E, (3F,_G,A, (3B,A,B, (3CDE_F2 | 
[V:1] [b'2e'2b2][a'2e'2a2][g'2e'2g2][a'4e'4a4][a2A2] | 
[V:2] (3.C,,C,E, (3A,E,A, (3CEA (3EeA (3ECA, (3E,C,A,, | 
[V:1] x6d4[_g2d2] & [a4e4A4][d2A2] [d2A2]=G2_G2 | 
[V:2] ._C,,2 (3_C,D,F, (3DF,D, (3B,,D,_G, (3EG,D, (3DG,D, | 
[V:1] [f4d4_c4F4][_c'2f2d2c2][c'4_g4d4c4][b2d2B2] | 
[V:2] (3A,,D,F, (3=CF,D, (3DF,D, (3_G,,D,_G, (3EG,D, (3_FG,D, | 
[V:1] x6[e4c4E4][a2e2] & [b4e4d4B4][e2d2B2E2] B2__B2A2 | 
[V:2] (3=G,,D,E, (3=A,E,D, (3B,E,D, (3_A,,E,_A, (3FA,E, (3EA,E, | 
[V:1] [a2A2][g2G2] x2x4[c'2a2e2] & [e4d4][_d'2g2e2_d2][d'4a4e4d4]x2 | 
[V:2] (3B,,E,G, (3=DG,E, (3EG,E, (3A,,E,A, (3EA,E, (3[cA]EA, | 
[V:1] [c'2_g2c2][b2g2d2B2][g2d2_G2] [d2G2D2][B3D3B,3][ADA,] | 
[V:2] (3B,,D,_G, (3B,G,D, (3DG,D, !accent!B,,,_G,, (3D,G,,D, (3G,,D,G,, | 
[V:1] [A4D4A,4][_G2D2_G,2]- [G2D2G,2][F3D3F,3][GDG,] | 
[V:2] !accent!B,,,_G,, (3D,G,,D, (3G,,D,G,, !accent!B,,,G,, (3D,G,,D, (3G,,D,G,, | 
[V:1] [=G4F4D4=G,4][G2F2G,2][A4F4A,4][=A2E2=A,2] | 
[V:2] !accent!B,,,F,, (3D,F,,D, (3F,,D,F,, C,,2x4 & x2x4C,,F,, (3C,D,=D, (3E,=E,F, | 
[V:1] [c4F4C4][B2F2B,2] [d2G2D2][=B2G2=B,2][c2G2C2] | 
[V:2] D,,2x4=E,,2x4 & D,,B,, (3C,D,=D, (3E,=E,F, =E,,C, (3=D,_E,=E, (3F,^F,G, | 
[V:1] [e4A4E4][d2A2D2] z2 [^d2c2^D2][=e2c2=E2] | 
[V:2] F,,2x4G,,2x4 & F,,D, (3E,=E,F, (3^F,G,A, G,,=E, (3=F,^F,G, (3A,=A,B, | 
[V:1] (3cedx4x6 & [f2F2][b2d2B2][a2f2A2][a4c4_G4][_g2c2_G2] | 
[V:2] (3A,,F,A, (3DA,F (3DA,F, (3A,,E,A, (3CA,_G (3CA,E, | 
[V:1] [f2d2F2] (3z FA (3ffa (3f'af (3fAF (3FA,F, | 
[V:2] !accent!D,,>A,, (3D,D,A,[K:clef=treble] (3DDA (3dAD[K:clef=bass] (3DA,D, (3D,A,,D,, | 
[V:1] (3FF,=A, (3FF=A (3ff=a (3f'af (3fAF (3FA,F, | 
[V:2] !accent!D,,>=A,, (3D,D,=A, (3DD=A (3!accent!d=AD (3DA,D, (3D,A,,D,, | 
[V:1] (3!accent!FF,B, (3FFB (3ffb (3f'bf (3fBF (3FB,F, | 
[V:2] D,,>B,, (3D,D,B, (3DDB (3!accent!dBD (3DB,D, (3D,B,,D,, | 
[V:1] (3!accent!GF,=B, (3GF=B (3gf=b (3g'bf (3gBF (3GB,F, | 
[V:2] !accent!D,,>G,, (3D,D,G, (3DDG (3dGD (3DG,D, (3D,G,,D,, | 
[V:1] [A2F2C2A,2] (3z C,F, (3A,=B,C (3FA=B (3cfa (3=bc'f' | 
[V:2] [C,2C,,2] !accent!C,,>F,, (3A,,=B,,C, (3F,A,=B, (3CFA (3=Bcf | 
[V:1] .a'2 .[f2d2A2F2] .[d2A2D2] .[_g2d2_G2] .[=e2c2G2=E2] .[c'2g2c2] | 
[V:2] a2 .[D2A,2D,2] .[_C2A,2F,2_C,2] .[B,2_G,2D,2B,,2] .[=C2=G,2=C,2] .[B,2G,2=E,2B,,2] | 
[V:1] .[c'2f2c2] (3z C,F, (3A,=B,C (3FA=B (3cfa (3=bc'f' | 
[V:2] .[A,2F,2A,,2] !accent!C,,>F,, (3A,,=B,,C, (3F,A,=B, (3CFA (3=Bcf | 
[V:1] .a'2 .[f2d2A2F2] .[F2D2A,2F,2] .[_G2D2_G,2] .[=E2C2=G,2] .[c2=G2C2] | 
[V:2] a2 .[D2A,2D,2] [_C,2_C,,2] [B,,2B,,,2] [=C,2=C,,2] [B,,2B,,,2] | 
[V:1] .[c2F2C2] .[=d2=B2F2=D2] .[^d2B2^F2^D2] .[^f2^c2^A2F2] .[=b2f2B2] .[^g2^e2B2^G2] | 
[V:2] [A,,2A,,,2] [G,,2G,,,2] [^F,,2^F,,,2] [=E,,2=E,,,2] [^D,,2^D,,,2] [=D,2=D,,2] | 
[V:1] .[^a2^f2^A2] .[^c'2^g2^e2^c2] .[^f'2c'2f2] .[=e'2c'2=g2=e2] .[=f'2=c'2=f2] .[_d'2g2f2_d2] | 
[V:2] [^C,2^C,,2] [=B,,2=B,,,2] [^A,,2^A,,,2] [=A,,2=A,,,2] [_A,,2_A,,,2] [_B,,2_B,,,2] | 
[V:1] .[=c'2g2f2=c2]z4C2D2F2 | 
[V:2] [=C,2=C,,2]z4C,2D,2F,2 | 
[V:1] [G2=E2C2G,2][G2=D2=B,2G,2F,2][G2E2C2G,2]z4!fermata!z2 | 
[V:2] [C,2C,,2][G,,2G,,,2][C,,2C,,,2]z4!fermata!z2 | 
[V:1] [c'12g12c12] | 
[V:2] [=E12G,12C,12] | 
[V:1] [g12=d12=B12G12F12] | 
[V:2] [=D12G,12C,12] | 
[V:1] [=e12_B12G12=E12] | 
[V:2] [C12G,12C,12] | 
[V:1] [=d12F12=D12] | 
[V:2] [_B,12G,12C,12] | 
[V:1] [=E12C12G,12]- | 
[V:2] [C,12C,,12]- | 
[V:1] [=E12C12G,12]- | 
[V:2] [C,12C,,12]- | 
[V:1] [=E12C12G,12]- | 
[V:2] [C,12C,,12]- | 
[V:1] [=E4C4G,4]z2z4z2 | 
[V:2] [C,4C,,4]z2z4z2 | 
[V:1] (3A,[AC]F (3G,[=B,A,]F, (3D[C_B,]G (3C[BF]A (3G=A,[FB,] (3D[CB,]G | 
[V:2] .F,,,2 (3D,D,,G,, (3C,,=E,C, (3A,C,F,, D,D,, (3C,,E,C, | 
[V:1] (3x A4 A A>d (3dc=B (3_B=A_A (3AGc & (3A,ED {/E} (3DC_G (3GF z (3DFD (3FDF (3B,=EC | 
[V:2] (3F,,F,A,, (3E,,_G,A,, (3D,,F,A,, (3_G,,A,,=A,, (3B,,=B,,C, (3D,C, z | 
[V:1] (3A[ac]f (3G[=BA]F (3d[c_B]g (3c[bf]a (3g=A[fB] (3d[cB]g | 
[V:2] F,,2 (3DD,G, (3C,=EC (3FCF, DD, (3C,EC | 
[V:1] (3x a4 a a>d'- (3d'c'=b (3_b=a_a- (3agc' & (3A[ae]d {/e} (3dc_g (3gf z (3dfd (3fdf (3B=ec | 
[V:2] (3F,FA, (3E,_GA, (3D,FA, (3_G,A,=A, (3B,=B,C (3DC z | 
[V:1] a2x4_g2x4 & (3[=d=B][ec][=e^c] (3[f=d][^f^d][ge] (3[a=f][ge][_d'_b] (3[=c=A][_d_B][=d=B] (3[_ec][=e^c][fd] (3[g_e][fd][_c'_a] | 
[V:2] (3F,A=D (3=B,AD (3=E,G_D (3_E,_GC (3=A,GC (3=D,F_C | 
[V:1] =e2x4x6 & (3[BG][=B^G][c=A] (3[d_B][=d=B][_ec] (3[=e^c][fd][^f^d] (3[^ge][=af][ge] (3[fd][ge][af] (3[_bg][=c'_a][^d'b] | 
[V:2] (3_D,=EB, (3G,EB, (3C,EB, (3=B,,E=B, (3G,EB, (3_B,,EC | 
[V:1] x2 (3c'e'[d'b] (3ac'b (3c[bg][af] (3A[ge][fd] (3G[=ec]B & (3[c'a][g'e'][f'd'] (3c'x[d'b] (3ax[bg] c2A2(3GxB | 
[V:2] (3A,,FC (3A,FC (3B,,FB, (3C,FC (3A,FC (3C,=EC | 
[V:1] (3B[g=e]f (3f_ed (3dcB A2!accent!G2- G3/c/ & (3BxA (3cxB (3AxGF4=E3/_E/ | 
[V:2] D,4x2x6 & (3D,DA, (3F,DA, (3B,,DG, (3C,CD (3C=B,C (3G,C=A, | 
[V:1] [F=D]>[B_D] [EC]>[AC] [D=B,]>[G_B,] [C=A,]>[F_A,] [F2_D2G,2][=E2C2G,2] | 
[V:2] (3!accent!B,F,G, (3!accent!_A,E,F, (3!accent!G,=D,=E, (3!accent!F,C,_D, (3!accent!B,,=A,,B,, (3!accent!C,=B,,C, | 
[V:1] [_E2C2][D4B,4]C4[F2A,2F,2] | 
[V:2] F,4=E,>F, [B,2G,2][A,2F,2] x2 & (3=A,,^G,,A,, (3B,,C,_A,, (3=G,,A,,F,, (3=E,,F,,G,, (3F,,G,,_E,, (3D,,E,,C,, | 
[V:1] [F2G,2F,2][=A,2F,2][B,2F,2] [C2B,2G,2][A2C2_A,2][=E2C2B,2] | 
[V:2] (3B,,,C,,D,, (3C,,D,,E,, (3D,,E,,F,, (3=E,,F,,G,, (3F,,B,,A,, (3G,,A,,B,, | 
[V:1] [F2C2A,2][E2C2_G,2][D2B,2F,2][C4_A,4F,4][C2B,2=E,2] | 
[V:2] (3A,,B,,C, (3=A,,^G,,A,, (3B,,C,D, (3C,_A,,F,, (3D,,C,,D,, (3C,,A,,=G,, | 
[V:1] (3[F^G,]=A,[_GC] (3[=A=D]E[cG] (3[e^G]A[_gc] (3[=a=d]e[c'g] (3[e'^g]a[_g'c'] (3[=a'=d']e'[c''g'] | 
[V:2] [C,F,,]>E, _G,>=A, C>E _G>=A[K:clef=treble] c>e _g3/=a/ | 
[V:1] x2 [=A2C2=A,2][F2B,2] [d2B2F2D2][c2B2=E2C2][E2B,2=E,2] & .[e''2=a'2] (3EF_G x2x6 | 
[V:2] c'2[K:clef=bass] (3[_G,_G,,][F,F,,][E,E,,] (3[D,D,,][C,C,,][B,,B,,,] (3[A,,A,,,][G,,_G,,,][G,,G,,,] (3[G,,G,,,][C,,C,,,][C,,C,,,] (3[D,,D,,,][C,,C,,,][C,,C,,,] | 
[V:1] (3^G,=A,[_GC] (3[=A=D]E[cG] (3[e^G]A[_gc] (3[=a=d]e[c'g] (3[e'^g]a[_g'c'] (3[=a'=d']e'[c''g'] | 
[V:2] (3[F,,F,,,] z E, _G,>=A, C>E _G>=A[K:clef=treble] c>e _g3/=a/ | 
[V:1] x2 [=a2c2=A2][b2f2B2] [d'2b2f2][c'2b2=e2c2][e2c2B2=E2] & .[e''2=a'2] (3ef_g x2x6 | 
[V:2] c'2[K:clef=bass] (3[_G_G,][FF,][EE,] (3[DD,][CC,][B,B,,] (3[A,A,,][G,_G,,][G,G,,] (3[G,G,,][C,C,,][C,C,,] (3[D,D,,][C,C,,][C,C,,] | 
[V:1] [f2A2F2] (3D,C,F, (3A,F,B, (3A,=E,G, (3A,G,C (3DCA | 
[V:2] (3F,,,C,,A,,z4C,,G,,=E,=E,,C,B, | 
[V:1] (3G=B,C (3DCF (3AF_B (3A=EG (3AGc (3dcg | 
[V:2] F,,C,A,A,,F,C C,B,=E=E,CB | 
[V:1] (3f =B,C (3DCF (3AF=B (3A=EG (3AGc (3dca | 
[V:2] F,,C,A,A,,F,C C,B,=E=E,C=B | 
[V:1] (3g=Bc (3dcf (3af_b (3a=eg (3agc' (3d'c'g' | 
[V:2] F,CAA,Fc[K:clef=treble] CB=e=Ecb | 
[V:1] (3f'f''=e'' (3_e''d''c'' (3b'a'g' (3f'=e'_e' (3d'c'b (3agf | 
[V:2] [f2c2A2F2]!accent![f4d4A4F4][f2c2A2F2]!accent![f4d4A4F4][K:clef=bass] | 
[V:1] (3a'g'f' (3e'd'c' (3bag (3fed (3cBA (3GFD | 
[V:2] [F2C2A,2F,2][F4D4A,4F,4].[F2C2A,2F,2] .[F2D2A,2F,2] z2 | 
[V:1] (3CFA (3cfa (3c'f'a' (3d''c''a' (3f'b'a' (3f'c'g' | 
[V:2] !arpeggio![A,2C,2F,,2]z4[K:clef=treble](3d'c'a (3fba (3fcg | 
[V:1] (3f'c'a (3d'c'a (3fba (3fcg (3fcA (3dcA | 
[V:2] (3fcA (3dcA (3FBA (3FCG (3FCA, (3DCA,[K:clef=bass] | 
[V:1] (3FBA (3FCG (3FCA, (3DCA, (3F,B,A, (3F,C,G, | 
[V:2] (3F,B,A, (3F,C,G, (3F,C,A,, (3D,C,A,, (3F,,B,,A,, (3F,,C,,G,, | 
[V:1] (3F,C,A,, (3D,C,A,, (3F,,D,C, (3A,,F,,D, (3C,A,,F,, (3D,C,A,, | 
[V:2] (3F,,C,,A,,, (3D,,C,,A,,, (3F,,,D,,C,, (3A,,,F,,,D,, (3C,,A,,,F,,, (3D,,C,,A,,, | 
[V:1] .F,,2z4.[f2d2A2F2]z4 | 
[V:2] F,,,2z4[D,2D,,2]z4 | 
[V:1] .[d'2g2f2d2]z4.[=E2C2B,2G,2]z4 | 
[V:2] [B,,2B,,,2]z4[C,2C,,2]z4 | 
[V:1] !fermata![F12C12A,12F,12] |]  
[V:2] !fermata![F,,12F,,,12] |]
